X: 4
T: The Cliffs Of Moher
R: jig
M: 6/8
L: 1/8
K: Gmaj
d|gfg agf|dgg fdc|AGG (A/2G/2FE)|DGG AGG|gfg agf|dgg fdc|AGG (A/2G/2FE)|DGG G2:||:A|ded cAA|ded cAG|(F/2G/2A).B cAG|(F/2G/2A).B c2A|ded cAA|ded cAG|(F/2G/2A).B cAG|FGG G2:|


Tune 12	Setting 12376

